X:241
T: DREIMAL UMS SCHEITERBEIG
N: E0823
O: Europa, Mitteleuropa, Deutschland, Schwaben, Tuttlingen
R: Kilt - Lied
M: 3/8
L: 1/8
K: Bb
 | FGF | FEE |
EFE | EDE |
FGF | FEE |
FGA | B2z

@@@ Tune index: 4554
